X:1
T:Diyarbakır, 11.11.11.11 D
T:Diyarbakır, 11.11.11.11 D
T:William Thomas Dale, 1910
T:Public Domain Courtesy of the Cyber Hymnal™
C:William Thomas Dale, 1910
Z:Public Domain
Z:Courtesy of the Cyber Hymnal™
%%score 1 ( 2 3 )
L:1/8
Q:1/4=93
M:4/4
K:Ab
V:1 treble 
V:2 bass 
V:3 bass 
V:1
 [CE]2 | [Ec]2 [=EB][FA] [Fc]<[FA] [DF]2 | [DA]2 [DA]>[DF] [CE]2 [CE]2 | %3
 [CE]2 [EA][EB] [Ec]2 [DB][CA] | [CF]2 [=DB][Dc] !fermata![EB]2 [CE]2 | %5
 [Ec]2 [=EB][FA] [FB]<[FA] [DF]2 | [DA]2 [DA]>[DF] [CE]2 [CE]2 | [CE]2 [EA][EB] [Ec]2 [DB][CA] | %8
 [DB]2 [Ec]>[DB] [CA]2 [Ec]2 | [Ae]2 [Af][Ae] [Ec]2 [Ec][DB] | [CA]2 [CA][EB] [Ec]2 [Ec]2 | %11
 [Ae]2 [Af][Ae] [Ec]2 [DB][CA] | [CF]2 [=DB][Dc] !fermata![EB]2 [CE]2 | %13
 [Ec]2 [=EB][FA] [FB]<[FA] [DF]2 | [DA]2 [DA]>[DF] [CE]2 [CE]2 | [CE]2 [EA][EB] [Ec]2 [DB][CA] | %16
 [DB]2 [Ec]>[DB] !fermata![CA]7/2 |] %17
V:2
 [A,,A,]2 | [A,,A,]2 [C,G,][C,A,] [D,A,]<[D,A,] [D,A,]2 | [D,F,]2 [D,F,]>[D,A,] [A,,A,]2 [A,,A,]2 | %3
 [A,,A,]2 [C,A,][E,G,] A,2 [E,G,][F,A,] | [F,A,]2 [B,,A,][B,,A,] !fermata![E,G,]2 [A,,A,]2 | %5
 [A,,A,]2 [C,G,][C,A,] [D,A,]<[D,A,] [D,A,]2 | [D,F,]2 [D,F,]>[D,A,] [A,,A,]2 [A,,A,]2 | %7
 [A,,A,]2 [C,A,][E,G,] A,2 [E,G,][F,A,] | [D,F,]2 [E,A,]>[E,G,] [A,,A,]2 [A,,A,]2 | %9
 [A,C]2 [A,D][A,C] A,2 A,[E,G,] | [F,A,]2 [F,A,][E,G,] A,2 A,2 | %11
 [A,C]2 [A,D][A,C] A,2 [E,G,][F,A,] | [F,A,]2 [B,,A,][B,,A,] !fermata![E,G,]2 [A,,A,]2 | %13
 [A,,A,]2 [C,G,][C,A,] [D,A,]<[D,A,] [D,A,]2 | [D,F,]2 [D,F,]>[D,A,] [A,,A,]2 [A,,A,]2 | %15
 [A,,A,]2 [C,A,][E,G,] A,2 [E,G,][F,A,] | [D,F,]2 [E,A,]>[E,G,] !fermata![A,,A,]2 x3/2 |] %17
V:3
 x2 | x8 | x8 | x4 A,2 x2 | x8 | x8 | x8 | x4 A,2 x2 | x8 | x4 A,2 A, x | x4 A,2 A,2 | x4 A,2 x2 | %12
 x8 | x8 | x8 | x4 A,2 x2 | x15/2 |] %17

